src/assets/img/back_arrow.svg

<svg fill="none" height="16" viewBox="0 0 10 16" width="10" xmlns="http://www.w3.org/2000/svg"><path clip-rule="evenodd" d="m8.96522 1.16135c.3758.40471.35236 1.03744-.05235 1.41324l-6.21084 5.76721 6.21084 5.7672c.40471.3758.42815 1.0085.05235 1.4133-.37581.4047-1.00854.4281-1.41325.0523l-6.999999-6.50001c-.203767-.18921-.319549-.45472-.319549-.73279s.115782-.54358.319549-.73279l6.999999-6.5c.40471-.375805 1.03744-.352371 1.41325.05234z" fill="#527442" fill-rule="evenodd"/></svg>

<svg width="10" height="16" viewBox="0 0 10 16" fill="none" xmlns="http://www.w3.org/2000/svg">
<path fill-rule="evenodd" clip-rule="evenodd" d="M8.96522 1.16135C9.34102 1.56606 9.31758 2.19879 8.91287 2.57459L2.70203 8.3418L8.91287 14.109C9.31758 14.4848 9.34102 15.1175 8.96522 15.5223C8.58941 15.927 7.95668 15.9504 7.55197 15.5746L0.551971 9.07459C0.348204 8.88538 0.232422 8.61987 0.232422 8.3418C0.232422 8.06373 0.348204 7.79822 0.551971 7.60901L7.55197 1.10901C7.95668 0.733205 8.58941 0.756639 8.96522 1.16135Z" fill="#527442"/>
</svg>
